packages/kaspersky-hexa-ui-icons/src/iconsSVGs/24/Star.svg

<svg width="24" height="24" viewBox="0 0 24 24" fill="none" xmlns="http://www.w3.org/2000/svg">
<path fill-rule="evenodd" clip-rule="evenodd" d="M10.8921 2.62198C11.302 1.63643 12.6982 1.63642 13.1081 2.62198L15.4661 8.29142L21.5868 8.78211C22.6508 8.86741 23.0822 10.1952 22.2716 10.8896L17.6083 14.8842L19.033 20.8569C19.2807 21.8952 18.1512 22.7158 17.2402 22.1595L12.0001 18.9588L6.75998 22.1595C5.84906 22.7158 4.71956 21.8952 4.96722 20.8569L6.39193 14.8842L1.72865 10.8896C0.918005 10.1952 1.34943 8.86741 2.41342 8.78211L8.53406 8.29142L10.8921 2.62198ZM12.0001 5.16598L10.1461 9.62345C10.0021 9.96968 9.67652 10.2063 9.30273 10.2362L4.49053 10.622L8.15692 13.7627C8.44171 14.0066 8.56608 14.3894 8.47907 14.7542L7.35893 19.4501L11.4789 16.9336C11.7989 16.7382 12.2013 16.7382 12.5214 16.9336L16.6413 19.4501L15.5211 14.7542C15.4341 14.3894 15.5585 14.0066 15.8433 13.7627L19.5097 10.622L14.6975 10.2362C14.3237 10.2063 13.9981 9.96968 13.8541 9.62345L12.0001 5.16598Z" fill="black"/>
</svg>

<svg xmlns="http://www.w3.org/2000/svg" width="24" height="24" fill="none" viewBox="0 0 24 24"><path fill="#000" fill-rule="evenodd" d="M10.8921 2.622c.4099-.9856 1.8061-.9856 2.216 0l2.358 5.6694 6.1207.4907c1.064.0853 1.4954 1.4131.6848 2.1075l-4.6633 3.9946 1.4247 5.9727c.2477 1.0383-.8818 1.8589-1.7928 1.3026l-5.2401-3.2007L6.76 22.1595c-.911.5563-2.0404-.2643-1.7928-1.3026l1.4247-5.9727-4.6632-3.9946c-.8107-.6944-.3793-2.0222.6847-2.1075l6.1207-.4907zm1.108 2.544-1.854 4.4575a1 1 0 0 1-.8434.6127l-4.8122.3858 3.6664 3.1407a1 1 0 0 1 .3222.9915l-1.1202 4.6959 4.12-2.5165a1 1 0 0 1 1.0425 0l4.1199 2.5165-1.1202-4.6959a1 1 0 0 1 .3222-.9915l3.6664-3.1407-4.8122-.3858a1 1 0 0 1-.8434-.6128z"/></svg>
